packages/kaspersky-hexa-ui-icons/src/iconsSVGs/32/DownloadCanceling.svg

<svg width="32" height="32" viewBox="0 0 32 32" fill="none" xmlns="http://www.w3.org/2000/svg">
<path fill-rule="evenodd" clip-rule="evenodd" d="M4.70711 5.29289C4.31658 4.90237 3.68342 4.90237 3.29289 5.29289C2.90237 5.68342 2.90237 6.31658 3.29289 6.70711L7.70528 11.1195C4.45784 11.7268 2 14.5764 2 18C2 21.866 5.13401 25 9 25H21.5858L24.7929 28.2071C25.1834 28.5976 25.8166 28.5976 26.2071 28.2071C26.5976 27.8166 26.5976 27.1834 26.2071 26.7929L4.70711 5.29289ZM19.5858 23L9.46904 12.8833C9.32844 12.958 9.16848 13 9 13C6.23858 13 4 15.2386 4 18C4 20.7614 6.23858 23 9 23H19.5858Z" fill="black"/>
<path d="M28 18C28 20.0997 26.7058 21.8971 24.8715 22.638L26.3703 24.1367C28.5339 22.9459 30 20.6442 30 18C30 14.4093 27.2964 11.45 23.8138 11.0468C22.9704 7.93628 20.2264 5 16 5C13.3836 5 11.3352 6.12535 9.95426 7.72071L11.3714 9.13785C12.4166 7.88049 13.9911 7 16 7C19.4173 7 21.5775 9.54774 22.0136 12.1644C22.094 12.6466 22.5112 13 23 13C25.7614 13 28 15.2386 28 18Z" fill="black"/>
</svg>

<svg xmlns="http://www.w3.org/2000/svg" width="32" height="32" fill="none" viewBox="0 0 32 32"><path fill="#000" fill-rule="evenodd" d="M4.7071 5.2929c-.3905-.3905-1.0237-.3905-1.4142 0s-.3905 1.0237 0 1.4142l4.4124 4.4124C4.4578 11.7268 2 14.5764 2 18c0 3.866 3.134 7 7 7h12.5858l3.2071 3.2071c.3905.3905 1.0237.3905 1.4142 0s.3905-1.0237 0-1.4142zM24.8715 22.638C26.7058 21.8971 28 20.0997 28 18c0-2.7614-2.2386-5-5-5a1 1 0 0 1-.9864-.8356C21.5775 9.5477 19.4173 7 16 7c-2.0089 0-3.5834.8805-4.6286 2.1379L9.9543 7.7207C11.3352 6.1254 13.3836 5 16 5c4.2264 0 6.9704 2.9363 7.8138 6.0468C27.2964 11.45 30 14.4093 30 18c0 2.6442-1.4661 4.9459-3.6297 6.1367zM19.5858 23 9.469 12.8833A1 1 0 0 1 9 13c-2.7614 0-5 2.2386-5 5s2.2386 5 5 5z"/></svg>
